build/cards/PaymentsMasterUSD.svg

<svg xmlns="http://www.w3.org/2000/svg" fill="none" viewBox="0 0 40 40" focusable="false"><path fill="none" d="M0 0H40V40H0z"/><rect width="38" height="28" x="1" y="6" fill="#37383B" rx="4"/><path fill="#FFF" d="M18.9141 13.8901C17.3464 14.2723 16.3945 15.5679 16.319 16.9748C16.2272 18.6867 17.419 20.3493 19.746 20.7355C20.7783 20.9068 21.4084 21.2752 21.7614 21.6495C22.1083 22.0174 22.2256 22.4268 22.1913 22.8024C22.1242 23.5379 21.4017 24.4326 19.888 24.4326C19.0811 24.4326 18.5782 24.1005 18.2607 23.7232C17.909 23.3053 17.8049 22.8562 17.8049 22.732C17.8049 22.2529 17.4165 21.8646 16.9375 21.8646C16.4584 21.8646 16.0701 22.2529 16.0701 22.732C16.0701 23.3164 16.3537 24.1513 16.9334 24.8402C17.3901 25.383 18.0453 25.8527 18.9141 26.0576L18.9141 27.1326C18.9141 27.6117 19.3025 28 19.7815 28C20.2606 28 20.6489 27.6117 20.6489 27.1326L20.6489 26.1107C22.4961 25.8293 23.7755 24.5325 23.9189 22.96C23.9994 22.0777 23.7036 21.1805 23.0235 20.4593C22.3494 19.7445 21.3386 19.2412 20.0299 19.024C18.4895 18.7684 18.0114 17.8132 18.0513 17.0677C18.0932 16.2885 18.6897 15.5115 19.888 15.5115C20.6701 15.5115 21.1078 15.8254 21.3754 16.1852C21.6724 16.5845 21.7862 17.0845 21.7862 17.3997C21.7862 17.8788 22.1745 18.2671 22.6536 18.2671C23.1326 18.2671 23.521 17.8788 23.521 17.3997C23.521 16.77 23.3195 15.8922 22.7674 15.1499C22.302 14.524 21.6033 14.0201 20.6489 13.844L20.6489 12.8674C20.6489 12.3883 20.2606 12 19.7815 12C19.3025 12 18.9141 12.3883 18.9141 12.8674L18.9141 13.8901Z"/></svg>

<svg xmlns="http://www.w3.org/2000/svg" fill="none" viewBox="0 0 40 40" focusable="false"><path fill="none" d="M0 0h40v40H0z"/><rect width="38" height="28" x="1" y="6" fill="#35383F" rx="4"/><path fill="#FFF" d="M18.91 13.89c-1.57.38-2.52 1.67-2.6 3.08-.09 1.71 1.1 3.37 3.43 3.76 1.03.17 1.66.54 2.02.91.34.37.46.78.43 1.16-.07.73-.79 1.63-2.31 1.63-.8 0-1.31-.33-1.62-.71-.36-.42-.46-.87-.46-.99a.87.87 0 0 0-.87-.87c-.48 0-.86.39-.86.87 0 .58.28 1.42.86 2.11.46.54 1.11 1.01 1.98 1.21v1.08c0 .48.39.87.87.87s.86-.39.86-.87v-1.02c1.85-.29 3.13-1.58 3.27-3.15.08-.89-.21-1.78-.89-2.51-.68-.71-1.69-1.21-3-1.43-1.54-.26-2.01-1.21-1.97-1.96.04-.78.63-1.55 1.83-1.55.79 0 1.22.31 1.49.67.3.4.41.9.41 1.21a.87.87 0 0 0 1.74 0c0-.62-.21-1.5-.76-2.25-.46-.62-1.16-1.12-2.12-1.3v-.98c0-.48-.38-.86-.86-.86s-.87.38-.87.86z"/></svg>
